public/assets/images/icons/twitter.svg

<svg width="24" height="24" viewBox="0 0 24 24" fill="none" xmlns="http://www.w3.org/2000/svg">
<path d="M22.8462 5.10133C22.0337 5.45769 21.1681 5.6939 20.2656 5.8086C21.194 5.25425 21.9027 4.38313 22.2358 3.33315C21.3702 3.84927 20.4144 4.21383 19.3958 4.41727C18.5739 3.54206 17.4024 3 16.1244 3C13.6448 3 11.6486 5.01258 11.6486 7.47983C11.6486 7.83483 11.6787 8.17617 11.7524 8.50113C8.029 8.31954 4.73433 6.53498 2.52104 3.8165C2.13463 4.4869 1.90798 5.25425 1.90798 6.08031C1.90798 7.63138 2.70673 9.00633 3.89735 9.80235C3.17779 9.78869 2.47188 9.57979 1.87385 9.25073C1.87385 9.26438 1.87385 9.28213 1.87385 9.29988C1.87385 11.4763 3.42629 13.2841 5.46208 13.7005C5.09752 13.8002 4.70019 13.848 4.28785 13.848C4.00112 13.848 3.71165 13.8316 3.43994 13.7715C4.02023 15.5452 5.66688 16.8491 7.62485 16.8914C6.10108 18.0834 4.16633 18.8016 2.07183 18.8016C1.70454 18.8016 1.35227 18.7852 1 18.7402C2.9839 20.0195 5.3351 20.75 7.87062 20.75C16.1121 20.75 20.6178 13.9231 20.6178 8.0055C20.6178 7.80752 20.611 7.61637 20.6015 7.42658C21.4903 6.79577 22.2372 6.00794 22.8462 5.10133Z" fill="white"/>
</svg>

<svg width="24" height="24" fill="none" xmlns="http://www.w3.org/2000/svg"><path d="M22.846 5.101a9.34 9.34 0 01-2.58.708 4.453 4.453 0 001.97-2.476 8.95 8.95 0 01-2.84 1.084 4.477 4.477 0 00-7.747 3.063c0 .355.03.696.103 1.021C8.03 8.32 4.734 6.535 2.521 3.817a4.509 4.509 0 00-.613 2.263c0 1.551.799 2.926 1.99 3.722a4.423 4.423 0 01-2.024-.551V9.3a4.5 4.5 0 003.588 4.4c-.364.1-.762.148-1.174.148-.287 0-.576-.016-.848-.077.58 1.774 2.227 3.078 4.185 3.12a8.999 8.999 0 01-5.553 1.91A8.4 8.4 0 011 18.742a12.61 12.61 0 006.87 2.009c8.242 0 12.748-6.827 12.748-12.745 0-.197-.007-.389-.016-.578A8.936 8.936 0 0022.846 5.1z" fill="#fff"/></svg>
